src/assets/outline/Simcard1.svg

<svg width="24" height="24" viewBox="0 0 24 24"  xmlns="http://www.w3.org/2000/svg">
<path d="M16 22.75H8C4.56 22.75 2.25 20.44 2.25 17V7C2.25 3.56 4.56 1.25 8 1.25H12.93C14.47 1.25 15.91 1.84999 17 2.92999L20.07 6C21.16 7.08 21.75 8.53001 21.75 10.07V17C21.75 20.44 19.44 22.75 16 22.75ZM8 2.75C5.42 2.75 3.75 4.42 3.75 7V17C3.75 19.58 5.42 21.25 8 21.25H16C18.58 21.25 20.25 19.58 20.25 17V10.07C20.25 8.93001 19.81 7.87001 19 7.07001L15.93 4C15.13 3.2 14.06 2.76001 12.92 2.76001H8V2.75Z" />
<path d="M9.49994 18.7495C9.30994 18.7495 9.11994 18.6795 8.96994 18.5295L6.96994 16.5295C6.67994 16.2395 6.67994 15.7595 6.96994 15.4695L8.96994 13.4695C9.25994 13.1795 9.73994 13.1795 10.0299 13.4695C10.3199 13.7595 10.3199 14.2395 10.0299 14.5295L8.55994 15.9995L10.0299 17.4695C10.3199 17.7595 10.3199 18.2395 10.0299 18.5295C9.87994 18.6795 9.68994 18.7495 9.49994 18.7495Z" />
<path d="M14.4999 18.7495C14.3099 18.7495 14.1199 18.6795 13.9699 18.5295C13.6799 18.2395 13.6799 17.7595 13.9699 17.4695L15.4399 15.9995L13.9699 14.5295C13.6799 14.2395 13.6799 13.7595 13.9699 13.4695C14.2599 13.1795 14.7399 13.1795 15.0299 13.4695L17.0299 15.4695C17.3199 15.7595 17.3199 16.2395 17.0299 16.5295L15.0299 18.5295C14.8799 18.6795 14.6899 18.7495 14.4999 18.7495Z" />
</svg>

<?xml version="1.0" encoding="UTF-8"?>
<svg width="24" height="24" viewBox="0 0 24 24" xmlns="http://www.w3.org/2000/svg">
 <path d="m16 22.75h-8c-3.44 0-5.75-2.31-5.75-5.75v-10c0-3.44 2.31-5.75 5.75-5.75h4.93c1.54 0 2.98 0.59999 4.07 1.68l3.07 3.07c1.09 1.08 1.68 2.53 1.68 4.07v6.93c0 3.44-2.31 5.75-5.75 5.75zm-8-20c-2.58 0-4.25 1.67-4.25 4.25v10c0 2.58 1.67 4.25 4.25 4.25h8c2.58 0 4.25-1.67 4.25-4.25v-6.93c0-1.14-0.44-2.2-1.25-3l-3.07-3.07c-0.8-0.8-1.87-1.24-3.01-1.24h-4.92v-0.01001z"/>
 <path d="m9.4999 18.75c-0.19 0-0.38-0.07-0.53-0.22l-2-2c-0.29-0.29-0.29-0.77 0-1.06l2-2c0.29-0.29 0.77-0.29 1.06 0 0.29 0.29 0.29 0.77 0 1.06l-1.47 1.47 1.47 1.47c0.29 0.29 0.29 0.77 0 1.06-0.14996 0.15-0.33996 0.22-0.52996 0.22z"/>
 <path d="m14.5 18.75c-0.19 0-0.38-0.07-0.53-0.22-0.29-0.29-0.29-0.77 0-1.06l1.47-1.47-1.47-1.47c-0.29-0.29-0.29-0.77 0-1.06s0.77-0.29 1.06 0l2 2c0.29 0.29 0.29 0.77 0 1.06l-2 2c-0.15 0.15-0.34 0.22-0.53 0.22z"/>
</svg>
